svg_80x80/spring.svg

<svg viewBox="0 0 80 80" xmlns="http://www.w3.org/2000/svg">
<rect width="100%" height="100%" fill="white"/>
<path d="M66.272 11.856C65.393 13.9922 64.2422 16.0062 62.848 17.848C56.9697 11.7607 48.9141 8.25794 40.4532 8.11016C31.9923 7.96238 23.8192 11.1817 17.732 17.06C11.6447 22.9382 8.14191 30.9939 7.99413 39.4548C7.84635 47.9157 11.0657 56.0887 16.944 62.176C17.3523 62.6243 17.7935 63.0414 18.264 63.424L19.448 64.48C23.9491 68.2665 29.4095 70.735 35.2256 71.6126C41.0418 72.4903 46.9874 71.7429 52.4055 69.4532C57.8235 67.1634 62.5031 63.4204 65.9272 58.6378C69.3512 53.8551 71.3865 48.2189 71.808 42.352C72.728 34.4 70.288 24.104 66.272 11.856ZM22.872 63.752C22.5334 64.1679 22.0791 64.4742 21.5664 64.6319C21.0538 64.7897 20.506 64.7919 19.9921 64.6383C19.4782 64.4847 19.0214 64.1822 18.6794 63.7691C18.3375 63.3559 18.1257 62.8506 18.0709 62.317C18.0161 61.7835 18.1207 61.2457 18.3715 60.7716C18.6223 60.2976 19.0081 59.9085 19.48 59.6536C19.9519 59.3988 20.4888 59.2896 21.0228 59.3398C21.5568 59.3901 22.0639 59.5976 22.48 59.936C23.0256 60.3982 23.3711 61.0537 23.4442 61.7651C23.5173 62.4764 23.3122 63.1885 22.872 63.752V63.752ZM66.072 54.208C58.24 64.672 41.376 61.12 30.648 61.648C30.648 61.648 28.736 61.776 26.824 62.04C26.824 62.04 27.552 61.712 28.472 61.384C36.048 58.752 39.6 58.184 44.208 55.848C52.84 51.44 61.464 41.76 63.2 31.744C59.912 41.344 49.896 49.664 40.8 53.016C34.528 55.32 23.264 57.6 23.264 57.6L22.808 57.336C15.2 53.544 14.904 36.952 28.864 31.616C34.992 29.216 40.784 30.56 47.44 28.984C54.488 27.336 62.64 22.064 65.944 15.152C69.6 26.28 74.112 43.536 66.072 54.208V54.208Z" fill="#6DB33F"/>
<path d="M66.0719 54.208C58.2399 64.672 41.3759 61.12 30.6479 61.648C30.6479 61.648 28.7359 61.776 26.8239 62.04C26.8239 62.04 27.5519 61.712 28.4719 61.384C36.0479 58.752 39.5999 58.184 44.2079 55.848C52.8399 51.44 61.4639 41.76 63.1999 31.744C59.9119 41.344 49.8959 49.664 40.7999 53.016C34.5279 55.32 23.2639 57.6 23.2639 57.6L22.8079 57.336C15.1999 53.544 14.9039 36.952 28.8639 31.616C34.9919 29.216 40.7839 30.56 47.4399 28.984C54.4879 27.336 62.6399 22.064 65.9439 15.152C69.5999 26.28 74.1119 43.536 66.0719 54.208V54.208ZM22.8719 63.752C22.5333 64.168 22.079 64.4742 21.5664 64.6319C21.0538 64.7897 20.5059 64.7919 19.992 64.6384C19.4781 64.4848 19.0214 64.1823 18.6794 63.7691C18.3374 63.3559 18.1256 62.8506 18.0708 62.3171C18.016 61.7835 18.1207 61.2457 18.3715 60.7717C18.6223 60.2976 19.0081 59.9085 19.48 59.6537C19.9519 59.3988 20.4888 59.2896 21.0228 59.3399C21.5567 59.3901 22.0638 59.5976 22.4799 59.936C23.0255 60.3983 23.3711 61.0537 23.4441 61.7651C23.5172 62.4764 23.3121 63.1885 22.8719 63.752V63.752Z" fill="white"/>
</svg>

<svg xmlns="http://www.w3.org/2000/svg" viewBox="0 0 80 80">
  <rect width="100%" height="100%" fill="#fff"/>
  <path fill="#6DB33F" d="M66.27 11.86a26.87 26.87 0 0 1-3.42 5.99 31.9 31.9 0 1 0-45.9 44.33c.4.44.84.86 1.31 1.24l1.19 1.06A31.9 31.9 0 0 0 71.8 42.35c.92-7.95-1.52-18.25-5.54-30.5Zm-43.4 51.9a2.71 2.71 0 1 1-.39-3.82 2.77 2.77 0 0 1 .4 3.81Zm43.2-9.55c-7.83 10.46-24.7 6.91-35.42 7.44 0 0-1.91.13-3.83.39 0 0 .73-.33 1.65-.66 7.58-2.63 11.13-3.2 15.74-5.53 8.63-4.41 17.25-14.09 18.99-24.1-3.29 9.6-13.3 17.91-22.4 21.27-6.27 2.3-17.54 4.58-17.54 4.58l-.45-.26c-7.61-3.8-7.9-20.39 6.05-25.72 6.13-2.4 11.92-1.06 18.58-2.64 7.05-1.64 15.2-6.92 18.5-13.83 3.66 11.13 8.17 28.39.13 39.06Z"/>
  <path fill="#fff" d="M66.07 54.2c-7.83 10.47-24.7 6.92-35.42 7.45 0 0-1.91.13-3.83.39 0 0 .73-.33 1.65-.66 7.58-2.63 11.13-3.2 15.74-5.53 8.63-4.41 17.25-14.09 18.99-24.1-3.29 9.6-13.3 17.91-22.4 21.27-6.27 2.3-17.54 4.58-17.54 4.58l-.45-.26c-7.61-3.8-7.9-20.39 6.05-25.72 6.13-2.4 11.92-1.06 18.58-2.64 7.05-1.64 15.2-6.92 18.5-13.83 3.66 11.13 8.17 28.39.13 39.06Zm-43.2 9.55a2.71 2.71 0 1 1-.39-3.81 2.77 2.77 0 0 1 .4 3.81Z"/>
</svg>
